X:1
T: A Glass of Potheen
C:
R:Jig
Q:180
K:G
M:6/8
L:1/16
|:e2|d2B2B2 A2G2A2|G2A2G2 G2A2B2|d2B2B2 A2G2A2|B2e2e2 e2f2g2|
d2B2B2 A2G2A2|G2A2G2 G2A2B2|d2B2B2 B2A2B2|B2e2e2 e4:|
|:f2|g4g2 f2a2f2|d2e2d2 d2e2f2|g4g2 f2a2f2|e2f2e2 e4f2|
g4g2 f2a2f2|d2e2d2 d2e2f2|g2f2e2 d2B2A2|B2e2e2 e4:|
